X: 1
T:Gan Ainm
M:4/4
L:1/8
R:German
D:Mairead Ni Mhaonaigh/Frankie Kennedy, Ceol Aduaidh
K:D
FG|ABAF DEFD|B,2~B,2A,2DE|FEFA BAFD|E2(3EFD E2FG|\
ABAF DEFD|B,2B,2A,2DE|FEFD EDEF|D2~D2D2::FA|B2BA BcdB|\
A2AB AFDF|AFAF BAFD|E2ED E2FG|ABAF DEFD|B,2B,2A,2DE|\
FEFD EDEF|D2~D2D2:|
